korla/apps/scalable/coypu.svg

<svg width="48" height="48" xmlns="http://www.w3.org/2000/svg">
 <circle cx="24" cy="25" r="20" opacity=".2"/>
 <circle cx="24" cy="24" r="20" fill="#fb6651"/>
 <path d="m24 4a20 20 0 0 0 -20 20 20 20 0 0 0 .0215.582 20 20 0 0 1 19.9785-19.582 20 20 0 0 1 19.979 19.418 20 20 0 0 0 .021-.418 20 20 0 0 0 -20-20z" fill="#fff" opacity=".2"/>
 <path d="m4.4395 28.064a20 20 0 0 0 .289 1.286 20 20 0 0 0 .1035.312c.5306-.257 1.038-.513 1.3164-.736 1.6408-1.316 4.5086-3.889 4.8006-3.889.293 0 .796-.122 1.006.606.21.727-.416 2.019-.416 2.019s-.635 1.087-.613 1.684c.3 2.15 2.174 4.3 3.933 4.595 1.268.174 3.141.059 3.141.059l.041-.316c-.041-.482-1.031-.69-1.031-.69-.008.006-1.263.241-1.811-.01-.924-.423-2.006-2.086-2.006-2.296 0-.212.311-.877.311-.877s1.019.136 1.357.136c.339 0 1.213.041 1.213.041l.656.727c.205.397.461.199.803.291l1.457.015 1.01-.021v-.514c0 .514.002-.485-.652-.5-.566-.027-1.306-.1-1.368-.304-.104-.335.041-.496.041-.494 0 0 .729-.352 2.266-.047 1.537.304 2.713.859 2.713.859-.439.811-.842 1.416-.92 2.248-.08.753-.079.752.416.752h2.504s0-.999-.678-.949c-.476-.016-1.023-.042-1.023-.082 0-.19.904-1.414.904-1.414l.785-.465s1.47.463 2.623.756c1.154.292 2.453.15 2.451.15.452.271.537.925.76 1.309.178.697.179.696.567.711.852.022 1.713-.016 2.545-.077 0 0 .066-.939-1.319-.939 0 0-.503-.319-.594-.795-.092-.476-.039-2.15-.039-2.15l.684-.057.9.91.563.055.777.969s.84.113 1.36-.084 1.46-.579 2.005-1.168c.544-.589.905-1.985.721-2.77s-1.197-1.722-1.197-1.722c-2.151-2.042-4.793-5.189-6.873-5.208-.332 0-1.159.514-1.637.17-2.976-2.052-6.235-4.002-9.805-4.148-.206-.006-.398 0-.57.019-3.91-.021-6.095 3.682-8.021 6.073-.851 1.059-1.5335 1.902-1.5335 1.902-1.4846 1.536-3.2651 3.12-4.916 4.068zm30.5605-4.064c.552 0 1 .448 1 1s-.448 1-1 1-1-.448-1-1 .448-1 1-1z" opacity=".2"/>
 <path d="m19.48 15.002c-.206-.006-.398 0-.57.019-3.91-.021-6.095 3.682-8.021 6.073-.851 1.059-1.5335 1.902-1.5335 1.902-1.5354 1.588-3.3904 3.259-5.0879 4.192.0908.539.2035 1.072.3379 1.601.6496-.305 1.2165-.601 1.5429-.863 1.6408-1.316 4.5086-3.889 4.8006-3.889.293 0 .796-.122 1.006.606.21.727-.416 2.019-.416 2.019s-.635 1.087-.613 1.684c.3 2.15 2.174 4.3 3.933 4.595 1.268.174 3.141.059 3.141.059l.041-.316c-.041-.482-1.031-.69-1.031-.69-.008.006-1.263.241-1.811-.01-.924-.423-2.006-2.085-2.006-2.296 0-.212.311-.877.311-.877s1.019.136 1.357.136c.339 0 1.213.041 1.213.041l.656.727c.205.397.461.199.803.291l1.457.015 1.01-.021v-.514c0 .514.002-.485-.652-.5-.566-.027-1.306-.1-1.368-.304-.104-.335.041-.495.041-.494 0 0 .729-.352 2.266-.047 1.537.304 2.713.859 2.713.859-.439.811-.842 1.416-.92 2.248-.08.753-.079.752.416.752h2.504s0-.999-.678-.949c-.476-.016-1.023-.042-1.023-.082 0-.19.904-1.414.904-1.414l.785-.465s1.47.463 2.623.756c1.154.292 2.452.15 2.451.15.451.271.537.925.76 1.309.178.697.179.696.567.711.852.022 1.713-.016 2.545-.077 0 0 .066-.939-1.319-.939 0 0-.503-.319-.594-.795-.092-.476-.039-2.15-.039-2.15l.684-.057.9.91.563.055.777.969s.84.113 1.36-.084 1.46-.579 2.005-1.168c.544-.589.905-1.985.721-2.77s-1.197-1.722-1.197-1.722c-2.151-2.042-4.793-5.189-6.873-5.208-.332 0-1.159.514-1.637.17-2.976-2.052-6.235-4.002-9.805-4.148zm15.52 7.998c.552 0 1 .448 1 1s-.448 1-1 1-1-.448-1-1 .448-1 1-1z" fill="#fff"/>
</svg>

<svg xmlns="http://www.w3.org/2000/svg" width="48" height="48" version="1.1">
 <circle style="opacity:0.2" cx="24" cy="25" r="20"/>
 <circle style="fill:#fb6651" cx="24" cy="24" r="20"/>
 <path style="fill:#ffffff;opacity:0.2" d="M 24 4 A 20 20 0 0 0 4 24 A 20 20 0 0 0 4.0215 24.582 A 20 20 0 0 1 24 5 A 20 20 0 0 1 43.979 24.418 A 20 20 0 0 0 44 24 A 20 20 0 0 0 24 4 z"/>
 <path style="opacity:0.2" d="M 4.4395 28.064 A 20 20 0 0 0 4.7285 29.35 A 20 20 0 0 0 4.832 29.662 C 5.3626 29.405 5.87 29.149 6.1484 28.926 C 7.7892 27.61 10.657 25.037 10.949 25.037 C 11.242 25.037 11.745 24.915 11.955 25.643 C 12.165 26.37 11.539 27.662 11.539 27.662 C 11.539 27.662 10.904 28.749 10.926 29.346 C 11.226 31.496 13.1 33.646 14.859 33.941 C 16.127 34.115 18 34 18 34 L 18.041 33.684 C 18 33.202 17.01 32.994 17.01 32.994 C 17.002 33 15.747 33.235 15.199 32.984 C 14.275 32.561 13.193 30.898 13.193 30.688 C 13.193 30.476 13.504 29.811 13.504 29.811 C 13.504 29.811 14.523 29.947 14.861 29.947 C 15.2 29.947 16.074 29.988 16.074 29.988 L 16.73 30.715 C 16.935 31.112 17.191 30.914 17.533 31.006 L 18.99 31.021 L 20 31 L 20 30.486 C 20 31 20.002 30.001 19.348 29.986 C 18.782 29.959 18.042 29.886 17.98 29.682 C 17.876 29.347 18.021 29.186 18.021 29.188 C 18.021 29.188 18.75 28.836 20.287 29.141 C 21.824 29.445 23 30 23 30 C 22.561 30.811 22.158 31.416 22.08 32.248 C 22 33.001 22.001 33 22.496 33 L 25 33 C 25 33 25 32.001 24.322 32.051 C 23.846 32.035 23.299 32.009 23.299 31.969 C 23.299 31.779 24.203 30.555 24.203 30.555 L 24.988 30.09 C 24.988 30.09 26.458 30.553 27.611 30.846 C 28.765 31.138 30.064 30.996 30.062 30.996 C 30.514 31.267 30.599 31.921 30.822 32.305 C 31 33.002 31.001 33.001 31.389 33.016 C 32.241 33.038 33.102 33 33.934 32.939 C 33.934 32.939 34 32 32.615 32 C 32.615 32 32.112 31.681 32.021 31.205 C 31.929 30.729 31.982 29.055 31.982 29.055 L 32.666 28.998 L 33.566 29.908 L 34.129 29.963 L 34.906 30.932 C 34.906 30.932 35.746 31.045 36.266 30.848 C 36.786 30.651 37.726 30.269 38.271 29.68 C 38.815 29.091 39.176 27.695 38.992 26.91 C 38.808 26.125 37.795 25.188 37.795 25.188 C 35.644 23.146 33.002 19.999 30.922 19.98 C 30.59 19.98 29.763 20.494 29.285 20.15 C 26.309 18.098 23.05 16.148 19.48 16.002 C 19.274 15.996 19.082 16.002 18.91 16.021 C 15 16 12.815 19.703 10.889 22.094 C 10.038 23.153 9.3555 23.996 9.3555 23.996 C 7.8709 25.532 6.0904 27.116 4.4395 28.064 z M 35 24 C 35.552 24 36 24.448 36 25 C 36 25.552 35.552 26 35 26 C 34.448 26 34 25.552 34 25 C 34 24.448 34.448 24 35 24 z"/>
 <path style="fill:#ffffff" d="M 19.48,15.002 C 19.274,14.996 19.082,15.002 18.91,15.021 15,15 12.815,18.703 10.889,21.094 10.038,22.153 9.3555,22.996 9.3555,22.996 7.8201,24.584 5.9651,26.255 4.2676,27.188 4.3584,27.727 4.4711,28.26 4.6055,28.789 5.2551,28.484 5.822,28.188 6.1484,27.926 7.7892,26.61 10.657,24.037 10.949,24.037 11.242,24.037 11.745,23.915 11.955,24.643 12.165,25.37 11.539,26.662 11.539,26.662 11.539,26.662 10.904,27.749 10.926,28.346 11.226,30.496 13.1,32.646 14.859,32.941 16.127,33.115 18,33 18,33 L 18.041,32.684 C 18,32.202 17.01,31.994 17.01,31.994 17.002,32 15.747,32.235 15.199,31.984 14.275,31.561 13.193,29.899 13.193,29.688 13.193,29.476 13.504,28.811 13.504,28.811 13.504,28.811 14.523,28.947 14.861,28.947 15.2,28.947 16.074,28.988 16.074,28.988 L 16.73,29.715 C 16.935,30.112 17.191,29.914 17.533,30.006 L 18.99,30.021 20,30 V 29.486 C 20,30 20.002,29.001 19.348,28.986 18.782,28.959 18.042,28.886 17.98,28.682 17.876,28.347 18.021,28.187 18.021,28.188 18.021,28.188 18.75,27.836 20.287,28.141 21.824,28.445 23,29 23,29 22.561,29.811 22.158,30.416 22.08,31.248 22,32.001 22.001,32 22.496,32 H 25 C 25,32 25,31.001 24.322,31.051 23.846,31.035 23.299,31.009 23.299,30.969 23.299,30.779 24.203,29.555 24.203,29.555 L 24.988,29.09 C 24.988,29.09 26.458,29.553 27.611,29.846 28.765,30.138 30.063,29.996 30.062,29.996 30.513,30.267 30.599,30.921 30.822,31.305 31,32.002 31.001,32.001 31.389,32.016 32.241,32.038 33.102,32 33.934,31.939 33.934,31.939 34,31 32.615,31 32.615,31 32.112,30.681 32.021,30.205 31.929,29.729 31.982,28.055 31.982,28.055 L 32.666,27.998 33.566,28.908 34.129,28.963 34.906,29.932 C 34.906,29.932 35.746,30.045 36.266,29.848 36.786,29.651 37.726,29.269 38.271,28.68 38.815,28.091 39.176,26.695 38.992,25.91 38.808,25.125 37.795,24.188 37.795,24.188 35.644,22.146 33.002,18.999 30.922,18.98 30.59,18.98 29.763,19.494 29.285,19.15 26.309,17.098 23.05,15.148 19.48,15.002 Z M 35,23 C 35.552,23 36,23.448 36,24 36,24.552 35.552,25 35,25 34.448,25 34,24.552 34,24 34,23.448 34.448,23 35,23 Z"/>
</svg>
